X:135
T:Jig of Slurs
M:6/8
L:1/8
C:Trad.
R:Jig
N:Phil Sexton's Version
K:D
|DFA dcd|Bdd Add|Bdd Add|Bee efe|\
DFA dcd|Bdd Add|Bdd cde|1fdc d3:|2fdc d2||\
A|fzf fef|aff fed|Bee ede|~f3 edB|\
Aff fef|aff fed|Bcd cde|fdc d2 :|\
B|gzg gfg|agf gdB|~g3 gfg|agf g2B|\
~g3 gfg|agf ged|Bee efg|fed e2 :|\
B|~G3 ~B3|~e3 edB|GBB Bdd|dee efg|\
GBB Bdd|dee edB|~e3 efg|fed e2 :||
